svg/emoji_u1f931_1f3fe.svg

<?xml version="1.0" encoding="utf-8"?>
<!-- Generator: Adobe Illustrator 24.0.3, SVG Export Plug-In . SVG Version: 6.00 Build 0)  -->
<svg version="1.1" id="Layer_1" xmlns="http://www.w3.org/2000/svg" xmlns:xlink="http://www.w3.org/1999/xlink" x="0" y="0"
	 viewBox="0 0 128 128" style="enable-background:new 0 0 128 128;" xml:space="preserve">
<path id="hair" style="fill:#3C2C23;" d="M55.42,4.53C31.82,7.75,32.99,29.5,32.96,33.68C32.92,37.85,35.11,72,38.99,79.5
	c3.15,6.09,17,2.82,17,2.82l11.01-1.75l8.59-1.34c0,0,4.67-0.81,6.64-4.72c4.98-9.86,5.27-33.09,2.77-49.02
	C84.93,25.1,82.1,0.89,55.42,4.53z"/>
<radialGradient id="hairHighlights_2_" cx="60.8528" cy="-269.2576" r="45.2187" gradientTransform="matrix(0.063 0.8236 -0.6981 0.0534 -131.2251 6.0494)" gradientUnits="userSpaceOnUse">
	<stop  offset="0.7989" style="stop-color:#554138;stop-opacity:0"/>
	<stop  offset="1" style="stop-color:#554138"/>
</radialGradient>
<path id="hairHighlights_1_" style="fill:url(#hairHighlights_2_);" d="M55.42,4.53C31.82,7.75,32.99,29.5,32.96,33.68
	C32.92,37.85,35.11,72,38.99,79.5c3.15,6.09,17,2.82,17,2.82l11.01-1.75l8.59-1.34c0,0,4.67-0.81,6.64-4.72
	c4.98-9.86,5.27-33.09,2.77-49.02C84.93,25.1,82.1,0.89,55.42,4.53z"/>
<g id="shirt">
	<g>
		
			<linearGradient id="SVGID_1_" gradientUnits="userSpaceOnUse" x1="67.9999" y1="65.5108" x2="67.9999" y2="122.2641" gradientTransform="matrix(1 0 0 1 0 2)">
			<stop  offset="0" style="stop-color:#651FFF"/>
			<stop  offset="1" style="stop-color:#530EEB"/>
		</linearGradient>
		<path style="fill:url(#SVGID_1_);" d="M109.89,106.15c-2.96-11.05-6.39-19.27-13.57-28.17c-2.95-3.66-8.58-8.45-16.58-9.83
			c-5.01-0.86-21.72-0.73-26.63-0.32c-15.27,1.29-20.16,6.19-24.7,22.6c-2.03,7.33-3.33,14.31-3.38,19.92
			c-0.08,9.29,3.02,12.15,9.29,13.33c3.96,0.75,15.57,0.54,22.11-1.67c4.87-1.64,14.61-0.71,18.72,2.81
			c0.73,0.63,2.08,0.68,3.16,0.63c0,0,4.62-0.47,10.7-1.12c5.35-0.58,11.22-0.91,16.33-2.61
			C113.62,118.98,110.47,108.32,109.89,106.15z M88.56,110.17c1.27-4.96,0.68-14.54,0.68-14.54c0.49,3.65,6.94,12.85,6.94,12.85
			L88.56,110.17z"/>
	</g>
</g>
<g id="bodyGroup">
	
		<linearGradient id="chest_1_" gradientUnits="userSpaceOnUse" x1="61.4072" y1="102.0931" x2="61.4072" y2="59.9743" gradientTransform="matrix(1 0 0 1 0 2)">
		<stop  offset="0.5" style="stop-color:#A56C43"/>
		<stop  offset="1" style="stop-color:#8D5738"/>
	</linearGradient>
	<path id="chest" style="fill:url(#chest_1_);" d="M75.27,67.73l-3.77-0.22c0-0.03-0.7-7.34-0.7-7.34l-7.11,1.12l-5.9,0.54
		l-0.34,5.61l-4.34,0.39c-1.37,2.5,0.83,9.08-2.37,15.33c-2.14,4.18-8.21,7.09-7.63,12.25c1.36,12.13,12.8,14.53,22.49,14.08
		c9.69-0.46,14.14-2.49,14.14-2.49C70.86,91.25,75.27,67.73,75.27,67.73z"/>
	<path id="tone_2_" style="fill:#875334;" d="M62.51,101.4c-0.25,0-0.5-0.08-0.71-0.23c-0.48-0.36-0.55-1-0.15-1.44
		c3.33-3.7,3.33-10.29,0.81-13.89c-0.45-0.64-0.96-1.26-0.6-1.56c0.35-0.29,0.83-0.07,1.23,0.36c3.69,3.96,5.31,11.45,0.78,16.24
		C63.63,101.12,62.83,101.4,62.51,101.4z"/>
</g>
<linearGradient id="hand_1_" gradientUnits="userSpaceOnUse" x1="42.8471" y1="118.2891" x2="65.6441" y2="118.2891" gradientTransform="matrix(1 0 0 1 0 2)">
	<stop  offset="0.5" style="stop-color:#A56C43"/>
	<stop  offset="1" style="stop-color:#8D5738"/>
</linearGradient>
<path id="hand_2_" style="fill:url(#hand_1_);" d="M73.1,115.25l-9.22,2.29l-11.5,5.08c0,0,5.4,1.63,8.49,2.2
	c6.3,1.15,14.31,0.02,14.31,0.02s-1.71-2.98-2.06-5.33C72.76,117.16,73.1,115.25,73.1,115.25z"/>
<linearGradient id="shirtShadow_2_" gradientUnits="userSpaceOnUse" x1="62.1594" y1="115.359" x2="64.678" y2="122.2587" gradientTransform="matrix(1 0 0 1 0 2)">
	<stop  offset="0.2105" style="stop-color:#212121;stop-opacity:0.4"/>
	<stop  offset="0.709" style="stop-color:#252525;stop-opacity:0"/>
</linearGradient>
<path id="shirtShadow_1_" style="fill:url(#shirtShadow_2_);" d="M59.19,124.46l13.98-4.6c-0.02-0.12-0.05-0.24-0.07-0.36
	c-0.35-2.35-0.01-4.25-0.01-4.25l-9.22,2.29l-11.5,5.08C52.37,122.62,56.15,123.76,59.19,124.46z"/>
<g id="baby">
	<g>
		<path style="fill:#C5E1A5;" d="M34.97,108.44c2.23-0.28,4.59,0.01,6.55,0.38c1.76,0.29,4.49,1.08,7.41,1.43
			c0.69,0.05,1.38,0.07,2.04,0.07c3.13-0.85,3.86-2.96,4.9-6.41c1.12-3.7,0.82-7.31-0.99-10.29c-2.71-4.43-7.42-7.04-11.73-6.49
			c-1.58,0.2-4.35,0.58-5.78,1.57c-3.55,2.46-5.27,5.94-5.93,9.13C31.2,98.98,30.17,105.33,34.97,108.44z"/>
	</g>
	<g>
		<path style="fill:#FAFAFA;" d="M36.02,87.46c-2.53,1.99-3.99,4.85-3.55,7.16c0.74-1.3,1.24-3.13,4.24-4.93
			c6.6-3.98,13.78-1.03,16.49,5.62c3.03,7.44-1.72,15.05-1.72,15.05c3.12-0.58,4.02-2.11,4.02-2.11c4.7-5.03,5.3-11.85,0.51-18.11
			C51.24,83.88,42.89,82.06,36.02,87.46z"/>
	</g>
	<g>
		<path style="fill:#BDBDBD;" d="M54.48,108.41c1.36-1.76,3.15-6.07,4.75-8.65c2.6-4.19,8.13-6.75,14.51-5.1
			c7.62,1.97,10.24,6.03,11.62,6.92s7.29-1.79,11.34,7.58c0,0-4.76,0.23-6.88,1.02c-3.48,1.3-9.14,4.43-12.84,4.75
			c-9.36,0.81-17.65-4.91-17.65-4.91c-2.82-0.14-7.84,0.32-7.84,0.32S53.12,110.17,54.48,108.41z"/>
	</g>
	
		<linearGradient id="SVGID_2_" gradientUnits="userSpaceOnUse" x1="59.651" y1="112.9338" x2="63.4934" y2="96.9503" gradientTransform="matrix(1 0 0 1 0 2)">
		<stop  offset="0.2105" style="stop-color:#212121;stop-opacity:0.4"/>
		<stop  offset="1" style="stop-color:#252525;stop-opacity:0"/>
	</linearGradient>
	<path style="fill:url(#SVGID_2_);" d="M41.53,105.03c4.81,0.25,9.77-2.9,12.55-6.88c0.85,0.37,1.86,0.22,2.69-0.18
		c0.83-0.41,1.52-1.06,2.18-1.71c0.64,2.13,0.29,3.52,0.29,3.52c0.66,1.14,2.1,1.23,3.43,0.4c1.38-0.86,3.21,3.25,3.21,3.25
		c2.91-1.29,6.22-4,6.96-4.49s2.8,0.51,2.48,1.53c-0.38,1.24-0.79,1.74-1.11,3c1.38-0.67,3.45-1.91,4.02-2.25
		c1.44-0.86,3.23-0.17,3.02,2.25c-0.05,0.53-0.76,4.78-0.9,4.73c3.88,1.43,10.62-1.03,13.45,1.23c-0.8,0.1-4.26,0.73-6.38,1.81
		c-9.08,4.61-11.31,3.66-13.22,4.08c-2.33,0.52-16.44-3.75-19.21-4.5c-2.04-0.56-4.6-0.29-6.76-0.51c-4.7-0.47-8.92-1.64-14.55-0.43
		c-0.75,0.16-4.33,0.91-4.47,1.26c1.12-2.83,0.05-5.04,0.51-8.05c0.42-2.74,1.59-3.5,1.51-3.81
		C31.25,99.29,31.86,104.52,41.53,105.03z"/>
</g>
<g id="handGroup">
	
		<linearGradient id="hand_3_" gradientUnits="userSpaceOnUse" x1="143.9116" y1="-53.9269" x2="166.6302" y2="-53.9269" gradientTransform="matrix(0.9883 -0.1524 0.1524 0.9883 -74.9041 185.7506)">
		<stop  offset="0.5" style="stop-color:#A56C43"/>
		<stop  offset="1" style="stop-color:#8D5738"/>
	</linearGradient>
	<path id="hand" style="fill:url(#hand_3_);" d="M59.1,110.51c0.08-4.93,3.12-5.52,3.8-9.97c0.04-0.29,2.29-1.6,2.59,1.31
		c0.12,1.22-0.19,2.5-0.71,3.61c-0.24,0.51-0.12,1.19,1.97,0.21c3.1-1.45,4.49-4,6.08-5.89c0.42-0.5,1.23-0.63,1.67-0.43
		c0.69,0.31,1.06,0.87,0.59,2.25c-0.91,2.67-3.56,5.18-3.56,5.18c2.28-0.2,4.63-2.27,6.32-3.81c0.71-0.65,1.22-1.41,2.11-1.3
		c1.03,0.12,1.19,1.8,0.62,2.83c-0.32,0.6-0.4,0.82-0.4,0.82s1.04,1.36,0.72,2.4c-0.23,0.76-0.88,1.72-0.88,1.72
		c-0.54,2.02-1.81,3.26-5.42,5.71c-5.24,3.57-13,4.78-13,4.78C61.98,114.19,59.1,110.51,59.1,110.51z"/>
	<path id="tone_1_" style="fill:#875334;" d="M80.91,102.87c-0.37,1.09-1.07,2.28-1.65,3.07c-2,2.72-5.69,3.99-5.51,4.37
		s4.19-0.88,5.79-3.3C81.31,104.33,80.91,102.87,80.91,102.87z"/>
	<path id="tone" style="fill:#875334;" d="M80.82,106.38c0,0,0.21,1.84-2.58,4.34c-1.25,1.13-3.73,2.35-3.73,2.35
		s2.44-0.17,4.17-1.81c2.37-2.25,2.26-2.89,2.36-3.57C81.13,107.04,80.82,106.38,80.82,106.38z"/>
</g>
<linearGradient id="SVGID_3_" gradientUnits="userSpaceOnUse" x1="55.0655" y1="114.0942" x2="31.8419" y2="114.0942" gradientTransform="matrix(1 0 0 1 0 2)">
	<stop  offset="0.2944" style="stop-color:#651FFF"/>
	<stop  offset="1" style="stop-color:#641EFE;stop-opacity:0"/>
</linearGradient>
<path style="fill:url(#SVGID_3_);" d="M61.14,111.75c-1.95-2.93-4.05-1.88-6.55-1.6c-0.85,0.1-3.32,0.27-5.66,0.09
	c-2.92-0.35-5.65-1.13-7.41-1.43c-3.97-0.74-9.54-1.18-12.4,2.8c-2.86,3.98-0.71,8.91,3.35,10.66c6.4,2.76,17.64,1.55,25.81-0.75
	C64.21,119.84,63.11,114.7,61.14,111.75z"/>
<path id="head" style="fill:#A56C43;" d="M55.98,12.37L55.98,12.37L55.98,12.37c-11.14,1.88-20.06,11.9-17.1,29.46
	c2.38,14.11,12.52,20.98,20.58,22.39c1.92,0.34,3.73,0.36,5.28,0.1c1.54-0.26,3.23-0.87,4.92-1.81
	c7.16-3.96,14.51-13.79,12.13-27.91C78.83,17.03,67.12,10.49,55.98,12.37z"/>
<path id="mouth_1_" style="fill:#473530;" d="M67.79,50.46c-1.85,1.53-8.54,2.59-10.78,1.69c-1.28-0.51-2.31,0.74-1.66,1.73
	c0.64,0.97,4.68,2.83,7.83,2.33c3.16-0.5,6.38-3.49,6.69-4.62C70.2,50.46,68.85,49.58,67.79,50.46z"/>
<path id="nose_1_" style="fill:#875334;" d="M63.84,44.38c-0.07-0.02-0.14-0.02-0.22-0.02l-4.53,0.71c-0.07,0.02-0.13,0.05-0.2,0.08
	c-0.38,0.23-0.54,0.69-0.28,1.12s1.37,1.55,3.19,1.27c1.82-0.29,2.52-1.7,2.64-2.19C64.57,44.87,64.28,44.48,63.84,44.38z"/>
<g id="eyes_1_">
	<path style="fill:#42312C;" d="M50.16,42.71c-1.33,0.21-2.58,0.07-3.49-0.31c-0.39-0.17-0.58,0-0.45,0.4
		c0.5,1.57,2.33,2.56,4.31,2.25c1.98-0.31,3.42-1.81,3.41-3.46c0-0.42-0.23-0.53-0.55-0.25C52.64,41.99,51.5,42.5,50.16,42.71z"/>
	<path style="fill:#42312C;" d="M71.32,39.38c-1.33,0.21-2.58,0.07-3.49-0.31c-0.39-0.17-0.58,0-0.45,0.4
		c0.5,1.57,2.33,2.56,4.31,2.25c1.98-0.31,3.42-1.81,3.41-3.46c0-0.42-0.23-0.53-0.55-0.25C73.8,38.66,72.65,39.17,71.32,39.38z"/>
</g>
<g id="eyebrows_1_">
	<path style="fill:#42312C;" d="M53.86,35.15c-0.73-0.7-2.3-1.64-5-1.22c-2.7,0.42-3.91,1.8-4.38,2.69
		c-0.21,0.39-0.08,0.79,0.14,1.01c0.21,0.2,0.74,0.33,1.27,0.06s1.53-1.01,3.35-1.31c1.83-0.27,3.01,0.12,3.59,0.22
		s1.06-0.19,1.19-0.44C54.18,35.88,54.18,35.47,53.86,35.15z"/>
	<path style="fill:#42312C;" d="M74.94,31.84c-0.73-0.7-2.3-1.64-5-1.22c-2.7,0.42-3.91,1.8-4.38,2.69
		c-0.21,0.39-0.08,0.79,0.14,1.01c0.21,0.2,0.75,0.33,1.27,0.06s1.53-1.01,3.35-1.31c1.83-0.27,3.01,0.12,3.59,0.22
		c0.59,0.1,1.06-0.19,1.19-0.44C75.26,32.57,75.26,32.15,74.94,31.84z"/>
</g>
<path id="hair_1_" style="fill:#3C2C23;" d="M83.27,28.28c-0.56-5.06-4.41-24.86-28.12-21.61c-22,3.02-20.21,25.08-19.92,30.02
	c0.21,3.7,0.71,10.99,1.22,15.06c0.53,4.28,4.98,5.2,4.98,5.2s-0.02-6.26-0.31-12.28c-0.26-5.34-0.21-9.75,2.21-10.65
	c14.11-5.23,20.99-14.53,20.99-14.53c2.87,4.33,10.26,7.82,12.93,9.17c2.19,1.11,2.84,7,3.19,9.49l-0.67,17.78
	c0,0,4.35-2.65,4.65-7.04C84.69,44.86,83.83,33.34,83.27,28.28z"/>
<radialGradient id="hairHighlights_3_" cx="57.5165" cy="-270.4961" r="48.5034" gradientTransform="matrix(-0.0911 -0.8209 0.6548 -0.0703 242.906 71.1586)" gradientUnits="userSpaceOnUse">
	<stop  offset="0.7895" style="stop-color:#554138;stop-opacity:0"/>
	<stop  offset="1" style="stop-color:#554138"/>
</radialGradient>
<path id="hairHighlights" style="fill:url(#hairHighlights_3_);" d="M83.27,28.28c-0.56-5.06-4.41-24.86-28.12-21.61
	c-22,3.02-20.21,25.08-19.92,30.02c0.21,3.7,0.71,10.99,1.22,15.06c0.53,4.28,4.98,5.2,4.98,5.2s-0.02-6.26-0.31-12.28
	c-0.26-5.34-0.21-9.75,2.21-10.65c14.11-5.23,20.99-14.53,20.99-14.53c2.87,4.33,10.26,7.82,12.93,9.17c2.19,1.11,2.84,7,3.19,9.49
	l-0.67,17.78c0,0,4.35-2.65,4.65-7.04C84.69,44.86,83.83,33.34,83.27,28.28z"/>
<linearGradient id="shirtShadow_3_" gradientUnits="userSpaceOnUse" x1="93.5418" y1="104.398" x2="96.102" y2="93.7483" gradientTransform="matrix(1 0 0 1 0 2)">
	<stop  offset="0.2105" style="stop-color:#212121;stop-opacity:0.4"/>
	<stop  offset="1" style="stop-color:#252525;stop-opacity:0"/>
</linearGradient>
<path id="shirtShadow" style="fill:url(#shirtShadow_3_);" d="M88.24,92.14c0,0,4.88,7.63,8.33,11.63s4.98,5.67,4.98,5.67
	s-1.86-0.02-4.63,0.1c0,0-1.83-4.42-3.64-5.36C93.27,104.18,88.89,96.89,88.24,92.14z"/>
</svg>

<?xml version="1.0" encoding="UTF-8" standalone="no"?>
<!DOCTYPE svg PUBLIC "-//W3C//DTD SVG 1.1//EN" "http://www.w3.org/Graphics/SVG/1.1/DTD/svg11.dtd">
<svg width="100%" height="100%" viewBox="0 0 128 128" version="1.1" xmlns="http://www.w3.org/2000/svg" xmlns:xlink="http://www.w3.org/1999/xlink" xml:space="preserve" xmlns:serif="http://www.serif.com/" style="fill-rule:evenodd;clip-rule:evenodd;stroke-linejoin:round;stroke-miterlimit:2;">
    <g transform="matrix(0.684716,-0.0188833,0.0188833,0.684716,26.3579,1.90426)">
        <path d="M15.08,113.53C8.57,91.19 8.57,45.39 8.57,45.39L92.57,45.06C92.57,45.06 92.57,86.55 87.69,113.25L15.08,113.53Z" style="fill:#47352d;fill-rule:nonzero;"/>
    </g>
    <g id="shirt">
        <g>
            <path d="M109.89,106.15C106.93,95.1 103.5,86.88 96.32,77.98C93.37,74.32 87.74,69.53 79.74,68.15C74.73,67.29 58.02,67.42 53.11,67.83C37.84,69.12 32.95,74.02 28.41,90.43C26.38,97.76 25.08,104.74 25.03,110.35C24.95,119.64 28.05,122.5 34.32,123.68C38.28,124.43 49.89,124.22 56.43,122.01C61.3,120.37 71.04,121.3 75.15,124.82C75.88,125.45 77.23,125.5 78.31,125.45C78.31,125.45 82.93,124.98 89.01,124.33C94.36,123.75 100.23,123.42 105.34,121.72C113.62,118.98 110.47,108.32 109.89,106.15ZM88.56,110.17C89.83,105.21 89.24,95.63 89.24,95.63C89.73,99.28 96.18,108.48 96.18,108.48L88.56,110.17Z" style="fill:rgb(101,31,255);fill-rule:nonzero;"/>
        </g>
    </g>
    <g id="bodyGroup">
        <path id="chest" d="M75.27,67.73L71.5,67.51C71.5,67.48 57.45,67.44 57.45,67.44L53.11,67.83C51.74,70.33 53.94,76.91 50.74,83.16C48.6,87.34 42.53,90.25 43.11,95.41C44.47,107.54 55.91,109.94 65.6,109.49C75.29,109.03 79.74,107 79.74,107C70.86,91.25 75.27,67.73 75.27,67.73Z" style="fill:#9b643c;fill-rule:nonzero;"/>
        <path id="tone_2_" d="M62.51,101.4C62.26,101.4 62.01,101.32 61.8,101.17C61.32,100.81 61.25,100.17 61.65,99.73C64.98,96.03 64.98,89.44 62.46,85.84C62.01,85.2 61.5,84.58 61.86,84.28C62.21,83.99 62.69,84.21 63.09,84.64C66.78,88.6 68.4,96.09 63.87,100.88C63.63,101.12 62.83,101.4 62.51,101.4Z" style="fill:#7a4c32;fill-opacity:0.8;fill-rule:nonzero;"/>
    </g>
    <path id="hand_2_" d="M73.1,115.25L63.88,117.54L52.38,122.62C52.38,122.62 57.78,124.25 60.87,124.82C67.17,125.97 75.18,124.84 75.18,124.84C75.18,124.84 73.47,121.86 73.12,119.51C72.76,117.16 73.1,115.25 73.1,115.25Z" style="fill:#7a4c32;fill-rule:nonzero;"/>
    <g id="baby">
        <g>
            <path d="M34.97,108.44C37.2,108.16 39.56,108.45 41.52,108.82C43.28,109.11 46.01,109.9 48.93,110.25C49.62,110.3 50.31,110.32 50.97,110.32C54.1,109.47 54.83,107.36 55.87,103.91C56.99,100.21 56.69,96.6 54.88,93.62C52.17,89.19 47.46,86.58 43.15,87.13C41.57,87.33 38.8,87.71 37.37,88.7C33.82,91.16 32.1,94.64 31.44,97.83C31.2,98.98 30.17,105.33 34.97,108.44Z" style="fill:rgb(164,208,113);fill-rule:nonzero;"/>
        </g>
        <g>
            <path d="M36.02,87.46C33.49,89.45 32.03,92.31 32.47,94.62C33.21,93.32 33.71,91.49 36.71,89.69C43.31,85.71 50.49,88.66 53.2,95.31C56.23,102.75 51.48,110.36 51.48,110.36C54.6,109.78 55.5,108.25 55.5,108.25C60.2,103.22 60.8,96.4 56.01,90.14C51.24,83.88 42.89,82.06 36.02,87.46Z" style="fill:rgb(250,250,250);fill-rule:nonzero;"/>
        </g>
        <g>
            <path d="M54.48,108.41C55.84,106.65 57.63,102.34 59.23,99.76C61.83,95.57 67.36,93.01 73.74,94.66C81.36,96.63 83.98,100.69 85.36,101.58C86.74,102.47 92.65,99.79 96.7,109.16C96.7,109.16 91.94,109.39 89.82,110.18C86.34,111.48 80.68,114.61 76.98,114.93C67.62,115.74 59.33,110.02 59.33,110.02C56.51,109.88 51.49,110.34 51.49,110.34C51.49,110.34 53.12,110.17 54.48,108.41Z" style="fill:rgb(189,189,189);fill-rule:nonzero;"/>
        </g>
    </g>
    <g id="handGroup">
        <path id="hand" d="M59.1,110.51C59.18,105.58 62.22,104.99 62.9,100.54C62.94,100.25 65.19,98.94 65.49,101.85C65.61,103.07 65.3,104.35 64.78,105.46C64.54,105.97 64.66,106.65 66.75,105.67C69.85,104.22 71.24,101.67 72.83,99.78C73.25,99.28 74.06,99.15 74.5,99.35C75.19,99.66 75.56,100.22 75.09,101.6C74.18,104.27 71.53,106.78 71.53,106.78C73.81,106.58 76.16,104.51 77.85,102.97C78.56,102.32 79.07,101.56 79.96,101.67C80.99,101.79 81.15,103.47 80.58,104.5C80.26,105.1 80.18,105.32 80.18,105.32C80.18,105.32 81.22,106.68 80.9,107.72C80.67,108.48 80.02,109.44 80.02,109.44C79.48,111.46 78.21,112.7 74.6,115.15C69.36,118.72 61.6,119.93 61.6,119.93C61.98,114.19 59.1,110.51 59.1,110.51Z" style="fill:#9b643c;fill-rule:nonzero;"/>
        <path id="tone_1_" d="M80.91,102.87C80.54,103.96 79.84,105.15 79.26,105.94C77.26,108.66 73.57,109.93 73.75,110.31C73.93,110.69 77.94,109.43 79.54,107.01C81.31,104.33 80.91,102.87 80.91,102.87Z" style="fill:#7a4c32;fill-rule:nonzero;"/>
        <path id="tone" d="M80.82,106.38C80.82,106.38 81.03,108.22 78.24,110.72C76.99,111.85 74.51,113.07 74.51,113.07C74.51,113.07 76.95,112.9 78.68,111.26C81.05,109.01 80.94,108.37 81.04,107.69C81.13,107.04 80.82,106.38 80.82,106.38Z" style="fill:#7a4c32;fill-rule:nonzero;"/>
    </g>
    <path d="M61.14,111.75C59.19,108.82 57.09,109.87 54.59,110.15C53.74,110.25 51.27,110.42 48.93,110.24C46.01,109.89 43.28,109.11 41.52,108.81C37.55,108.07 31.98,107.63 29.12,111.61C26.26,115.59 28.41,120.52 32.47,122.27C38.87,125.03 50.11,123.82 58.28,121.52C64.21,119.84 63.11,114.7 61.14,111.75Z" style="fill:url(#_Linear1);fill-rule:nonzero;"/>
    <g id="Ebene1" transform="matrix(0.916834,-0.0783498,0.0783498,0.916834,3.09011,5.6357)">
        <g transform="matrix(0.74316,0.0429119,-0.0429119,0.74316,25.5397,-1.88737)">
            <ellipse cx="50.57" cy="46.11" rx="42" ry="39.5" style="fill:#47352d;"/>
        </g>
        <g transform="matrix(0.744397,1.38778e-16,-1.38778e-16,0.744397,23.0305,-1.32679)">
            <path d="M59.61,90.25L41.44,90.25L41.44,99.84C41.44,104.18 45.14,107.7 49.7,107.7L51.35,107.7C55.91,107.7 59.61,104.18 59.61,99.84L59.61,90.25Z" style="fill:url(#_Linear2);fill-rule:nonzero;"/>
        </g>
        <g transform="matrix(0.744397,0,0,0.744397,22.8994,0.208323)">
            <path d="M50.46,13.57C26.11,13.57 19.74,32.44 19.74,58.96C19.74,85.47 38.63,93.56 50.46,93.56C62.29,93.56 81.18,85.47 81.18,58.96C81.18,32.45 74.81,13.57 50.46,13.57Z" style="fill:#9b643c;fill-rule:nonzero;"/>
        </g>
        <g transform="matrix(0.744397,0,0,0.744397,22.8994,0.208323)">
            <path d="M59.8,78.11L41.34,78.11C40.28,78.11 39.83,78.82 40.53,79.89C41.51,81.38 45.14,84.25 50.57,84.25C56,84.25 59.63,81.38 60.61,79.89C61.31,78.82 60.86,78.11 59.8,78.11Z" style="fill:rgb(81,63,53);fill-rule:nonzero;"/>
        </g>
        <g transform="matrix(0.744397,0,0,0.744397,22.8994,0.208323)">
            <path d="M54.98,70.27C53.41,70.71 51.78,70.93 50.52,70.93C49.26,70.93 47.63,70.71 46.06,70.27C45.39,70.08 45.12,70.72 45.37,71.14C45.87,72.02 47.87,73.78 50.52,73.78C53.17,73.78 55.17,72.01 55.67,71.14C55.91,70.71 55.65,70.08 54.98,70.27Z" style="fill:#7a4c32;fill-rule:nonzero;"/>
        </g>
        <g transform="matrix(0.74316,0.0429119,-0.0429119,0.74316,25.5397,-1.88737)">
            <path d="M59.64,34.43C56.41,37.54 40.35,52.01 18.22,55.78L18.22,26.11C18.22,26.11 27.77,7.16 50.69,7.16C73.61,7.16 83.16,26.59 83.16,26.59L83.16,55.78C83.16,55.78 68.14,50.02 60.6,34.61C60.502,34.398 60.289,34.262 60.056,34.262C59.901,34.262 59.752,34.322 59.64,34.43Z" style="fill:#47352d;fill-rule:nonzero;"/>
        </g>
        <g transform="matrix(1.07357,0.168711,-0.168711,1.07357,1.74457,-7.64039)">
            <path d="M50.16,42.71C48.83,42.92 47.58,42.78 46.67,42.4C46.28,42.23 46.09,42.4 46.22,42.8C46.72,44.37 48.55,45.36 50.53,45.05C52.51,44.74 53.95,43.24 53.94,41.59C53.94,41.17 53.71,41.06 53.39,41.34C52.64,41.99 51.5,42.5 50.16,42.71Z" style="fill:rgb(64,64,64);fill-rule:nonzero;"/>
        </g>
        <g transform="matrix(1.07357,0.168711,-0.168711,1.07357,1.74457,-7.64039)">
            <path d="M71.32,39.38C69.99,39.59 68.74,39.45 67.83,39.07C67.44,38.9 67.25,39.07 67.38,39.47C67.88,41.04 69.71,42.03 71.69,41.72C73.67,41.41 75.11,39.91 75.1,38.26C75.1,37.84 74.87,37.73 74.55,38.01C73.8,38.66 72.65,39.17 71.32,39.38Z" style="fill:rgb(64,64,64);fill-rule:nonzero;"/>
        </g>
    </g>
    <defs>
        <linearGradient id="_Linear1" x1="0" y1="0" x2="1" y2="0" gradientUnits="userSpaceOnUse" gradientTransform="matrix(-23.2236,2.84407e-15,-2.84407e-15,-23.2236,55.0655,116.094)"><stop offset="0" style="stop-color:rgb(101,31,255);stop-opacity:1"/><stop offset="0.29" style="stop-color:rgb(101,31,255);stop-opacity:1"/><stop offset="1" style="stop-color:rgb(100,30,254);stop-opacity:0"/></linearGradient>
        <linearGradient id="_Linear2" x1="0" y1="0" x2="1" y2="0" gradientUnits="userSpaceOnUse" gradientTransform="matrix(-0.126799,-13.3112,12.7837,-0.121775,50.6444,107.521)"><stop offset="0" style="stop-color:#9b643c;stop-opacity:1"/><stop offset="1" style="stop-color:#7a4c32;stop-opacity:1"/></linearGradient>
    </defs>
</svg>
